icons/marker.svg

<svg id="Layer_1" data-name="Layer 1" xmlns="http://www.w3.org/2000/svg" viewBox="0 0 139.14 198.51"><defs><linearGradient id="linear-gradient" x1="83.02" y1="-130.45" x2="60.03" y2="207.36" gradientUnits="userSpaceOnUse"><stop offset=".35" stop-color="#36af94"/><stop offset=".48" stop-color="#30a68b"/><stop offset=".7" stop-color="#208c72"/><stop offset=".96" stop-color="#05634b"/><stop offset=".99" stop-color="#025e46"/></linearGradient><style>.cls-2{fill:#019a78}</style></defs><path d="M70.42 50.57a20.75 20.75 0 1020.74 20.75 20.78 20.78 0 00-20.74-20.75z" fill="#fff"/><path class="cls-2" d="M69.57 2C32.31 2 2 31.2 2 67.09c0 19.54 8.84 44.27 26.27 73.51a462.37 462.37 0 0039 54.83 3 3 0 004.57 0 462.54 462.54 0 0039-54.83c17.43-29.24 26.27-54 26.27-73.51C137.14 31.2 106.83 2 69.57 2zm.85 90.06a20.75 20.75 0 1120.74-20.74 20.77 20.77 0 01-20.74 20.74z"/><path class="cls-2" d="M69.57 194.51a1 1 0 01-.74-.35A459.67 459.67 0 0130 139.57C12.74 110.65 4 86.26 4 67.09 4 32.3 33.42 4 69.57 4s65.57 28.3 65.57 63.09c0 19.17-8.74 43.56-26 72.48a459.67 459.67 0 01-38.84 54.59 1 1 0 01-.73.35zm.85-145.94a22.75 22.75 0 1022.74 22.75 22.77 22.77 0 00-22.74-22.75z"/><path d="M69.57 6c35.05 0 63.57 27.4 63.57 61.09 0 18.8-8.65 42.85-25.71 71.46a457.78 457.78 0 01-37.86 53.37 456.9 456.9 0 01-37.86-53.37C14.65 109.94 6 85.89 6 67.09 6 33.4 34.52 6 69.57 6m.85 90.06a24.75 24.75 0 10-24.75-24.74 24.77 24.77 0 0024.75 24.74M69.57 2C32.31 2 2 31.2 2 67.09c0 19.54 8.84 44.27 26.27 73.51a462.37 462.37 0 0039 54.83 3 3 0 004.57 0 462.54 462.54 0 0039-54.83c17.43-29.24 26.27-54 26.27-73.51C137.14 31.2 106.83 2 69.57 2zm.85 90.06a20.75 20.75 0 1120.74-20.74 20.77 20.77 0 01-20.74 20.74z" fill="#017a5d"/><path d="M31.71 138.55a456.9 456.9 0 0037.86 53.37 457.78 457.78 0 0037.86-53.37c17.06-28.61 25.71-52.66 25.71-71.46C133.14 33.4 104.62 6 69.57 6S6 33.4 6 67.09c0 18.8 8.65 42.85 25.71 71.46zm38.71-92a24.75 24.75 0 11-24.75 24.77 24.77 24.77 0 0124.75-24.75z" fill="url(#linear-gradient)"/></svg>

<svg id="Layer_1" data-name="Layer 1" xmlns="http://www.w3.org/2000/svg" xmlns:xlink="http://www.w3.org/1999/xlink" viewBox="0 0 139.14 198.51"><defs><style>.cls-1{fill:#fff;}.cls-2{fill:#019a78;}.cls-3{fill:#017a5d;}.cls-4{fill:url(#linear-gradient);}</style><linearGradient id="linear-gradient" x1="83.02" y1="-130.45" x2="60.03" y2="207.36" gradientUnits="userSpaceOnUse"><stop offset="0.35" stop-color="#36af94"/><stop offset="0.48" stop-color="#30a68b"/><stop offset="0.7" stop-color="#208c72"/><stop offset="0.96" stop-color="#05634b"/><stop offset="0.99" stop-color="#025e46"/></linearGradient></defs><path class="cls-1" d="M70.42,50.57A20.75,20.75,0,1,0,91.16,71.32,20.78,20.78,0,0,0,70.42,50.57Z"/><path class="cls-2" d="M69.57,2C32.31,2,2,31.2,2,67.09c0,19.54,8.84,44.27,26.27,73.51a462.37,462.37,0,0,0,39,54.83,3,3,0,0,0,4.57,0,462.54,462.54,0,0,0,39-54.83c17.43-29.24,26.27-54,26.27-73.51C137.14,31.2,106.83,2,69.57,2Zm.85,90.06A20.75,20.75,0,1,1,91.16,71.32,20.77,20.77,0,0,1,70.42,92.06Z"/><path class="cls-2" d="M69.57,194.51a1,1,0,0,1-.74-.35A459.67,459.67,0,0,1,30,139.57C12.74,110.65,4,86.26,4,67.09,4,32.3,33.42,4,69.57,4s65.57,28.3,65.57,63.09c0,19.17-8.74,43.56-26,72.48a459.67,459.67,0,0,1-38.84,54.59A1,1,0,0,1,69.57,194.51Zm.85-145.94A22.75,22.75,0,1,0,93.16,71.32,22.77,22.77,0,0,0,70.42,48.57Z"/><path class="cls-3" d="M69.57,6c35.05,0,63.57,27.4,63.57,61.09,0,18.8-8.65,42.85-25.71,71.46a457.78,457.78,0,0,1-37.86,53.37,456.9,456.9,0,0,1-37.86-53.37C14.65,109.94,6,85.89,6,67.09,6,33.4,34.52,6,69.57,6m.85,90.06A24.75,24.75,0,1,0,45.67,71.32,24.77,24.77,0,0,0,70.42,96.06M69.57,2C32.31,2,2,31.2,2,67.09c0,19.54,8.84,44.27,26.27,73.51a462.37,462.37,0,0,0,39,54.83,3,3,0,0,0,4.57,0,462.54,462.54,0,0,0,39-54.83c17.43-29.24,26.27-54,26.27-73.51C137.14,31.2,106.83,2,69.57,2Zm.85,90.06A20.75,20.75,0,1,1,91.16,71.32,20.77,20.77,0,0,1,70.42,92.06Z"/><path class="cls-4" d="M31.71,138.55a456.9,456.9,0,0,0,37.86,53.37,457.78,457.78,0,0,0,37.86-53.37c17.06-28.61,25.71-52.66,25.71-71.46C133.14,33.4,104.62,6,69.57,6S6,33.4,6,67.09C6,85.89,14.65,109.94,31.71,138.55Zm38.71-92A24.75,24.75,0,1,1,45.67,71.32,24.77,24.77,0,0,1,70.42,46.57Z"/></svg>
